X: 177
T: Let Us Leave That As It Is   #2
R: jig
%S: s:2 b:10(6+4)
B: O'Neill's 1850 #177
O: F.O'Neill
Z: henrik.norbeck@mailbox.swipnet.se
N: Compacted via repeats and multiple endings [JC]
N: Compacted by using labels and play order [JC]
P: Play A1A2 BA2
Q: "Gaily"
M: 6/8
L: 1/8
K: A
"^A"[|] (A/G/) !segno!|: (EA).A T(AG).A | (cde) f2 a |\
[1,3 {a}g>ec ded | {d}cAF (G2 {AG}E/D/) :|[2,4 g>ec (d<c)A | A3 "^fine"A2 :|
"^B"[| d | efg aba | T(gfg) (efg) | aba gec | dcA G2 ({AG}E/!segno!D/) |]
